svg/align_justify.svg

<svg xmlns="http://www.w3.org/2000/svg" viewBox="0 0 32 32"><path style="text-indent:0;text-align:start;line-height:normal;text-transform:none;block-progression:tb;-inkscape-font-specification:Bitstream Vera Sans" d="M3 7v2h26V7H3zm0 4v2h26v-2H3zm0 4v2h26v-2H3zm0 4v2h26v-2H3zm0 4v2h26v-2H3z" color="#000" overflow="visible" font-family="Bitstream Vera Sans"/></svg>

<svg xmlns="http://www.w3.org/2000/svg" viewBox="0 0 32 32" enable-background="new 0 0 32 32"><path d="M 3 7 L 3 9 L 29 9 L 29 7 L 3 7 z M 3 11 L 3 13 L 29 13 L 29 11 L 3 11 z M 3 15 L 3 17 L 29 17 L 29 15 L 3 15 z M 3 19 L 3 21 L 29 21 L 29 19 L 3 19 z M 3 23 L 3 25 L 29 25 L 29 23 L 3 23 z" color="#000" overflow="visible" enable-background="accumulate"/></svg>
